contributed-vectors/_5paisa.svg

<?xml version="1.0" encoding="UTF-8" standalone="no"?>
<svg
   xmlns:dc="http://purl.org/dc/elements/1.1/"
   xmlns:cc="http://creativecommons.org/ns#"
   xmlns:rdf="http://www.w3.org/1999/02/22-rdf-syntax-ns#"
   xmlns:svg="http://www.w3.org/2000/svg"
   xmlns="http://www.w3.org/2000/svg"
   xmlns:sodipodi="http://sodipodi.sourceforge.net/DTD/sodipodi-0.dtd"
   xmlns:inkscape="http://www.inkscape.org/namespaces/inkscape"
   viewBox="0 0 192 192"
   version="1.1"
   id="svg16"
   sodipodi:docname="5paisa.svg"
   inkscape:version="0.92.4 (5da689c313, 2019-01-14)">
  <metadata
     id="metadata20">
    <rdf:RDF>
      <cc:Work
         rdf:about="">
        <dc:format>image/svg+xml</dc:format>
        <dc:type
           rdf:resource="http://purl.org/dc/dcmitype/StillImage" />
        <dc:title></dc:title>
      </cc:Work>
    </rdf:RDF>
  </metadata>
  <sodipodi:namedview
     pagecolor="#ffffff"
     bordercolor="#666666"
     borderopacity="1"
     objecttolerance="10"
     gridtolerance="10"
     guidetolerance="10"
     inkscape:pageopacity="0"
     inkscape:pageshadow="2"
     inkscape:window-width="1920"
     inkscape:window-height="1017"
     id="namedview18"
     showgrid="true"
     inkscape:zoom="3.4766083"
     inkscape:cx="85.817668"
     inkscape:cy="63.924282"
     inkscape:window-x="-8"
     inkscape:window-y="-8"
     inkscape:window-maximized="1"
     inkscape:current-layer="svg16"
     inkscape:snap-global="false">
    <inkscape:grid
       type="xygrid"
       id="grid827"
       spacingx="4"
       spacingy="4" />
  </sodipodi:namedview>
  <defs
     id="defs4">
    <style
       id="style2">.a{fill:none;stroke:#b1b5bd;stroke-linecap:round;stroke-linejoin:round;isolation:isolate;opacity:0.63;}</style>
  </defs>
  <rect
     class="a"
     x="20"
     y="20"
     width="152"
     height="152"
     rx="10"
     id="rect6"
     style="fill:#ba6561;stroke:none;opacity:1" />
  <path
     style="fill:#cccccc;stroke:none;stroke-width:1px;stroke-linecap:butt;stroke-linejoin:miter;stroke-opacity:1"
     d="M 56.089844 45.304688 L 20 59.103516 L 20 162 C 20 167.54 24.46 172 30 172 L 148.25586 172 L 126.27344 106.28516 L 105.84961 60.261719 L 83.703125 47.03125 L 56.089844 45.304688 z "
     id="path935" />
  <path
     style="color:#000000;font-style:normal;font-variant:normal;font-weight:normal;font-stretch:normal;font-size:medium;line-height:normal;font-family:sans-serif;font-variant-ligatures:normal;font-variant-position:normal;font-variant-caps:normal;font-variant-numeric:normal;font-variant-alternates:normal;font-feature-settings:normal;text-indent:0;text-align:start;text-decoration:none;text-decoration-line:none;text-decoration-style:solid;text-decoration-color:#000000;letter-spacing:normal;word-spacing:normal;text-transform:none;writing-mode:lr-tb;direction:ltr;text-orientation:mixed;dominant-baseline:auto;baseline-shift:baseline;text-anchor:start;white-space:normal;shape-padding:0;clip-rule:nonzero;display:inline;overflow:visible;visibility:visible;opacity:1;isolation:auto;mix-blend-mode:normal;color-interpolation:sRGB;color-interpolation-filters:linearRGB;solid-color:#000000;solid-opacity:1;vector-effect:none;fill:#a0a5af;fill-opacity:1;fill-rule:nonzero;stroke:none;stroke-width:8;stroke-linecap:round;stroke-linejoin:round;stroke-miterlimit:4;stroke-dasharray:none;stroke-dashoffset:0;stroke-opacity:1;color-rendering:auto;image-rendering:auto;shape-rendering:auto;text-rendering:auto;enable-background:accumulate"
     d="M 66.175781 40.958984 C 58.095182 40.889114 49.615197 42.315128 40.990234 45.259766 C 34.846073 47.357436 25.836599 51.249236 20 53.833984 L 20 62.587891 C 24.798693 60.441478 36.828767 55.133034 43.574219 52.830078 C 59.295363 47.462743 73.791286 47.786018 85.783203 52.974609 C 97.775121 58.163201 107.44707 68.240639 113.34375 83.294922 C 123.99416 110.48551 140.8061 161.23344 144.35547 172 L 152.7832 172 C 151.1318 166.96974 132.37537 109.94694 120.79297 80.376953 C 114.24446 63.658551 103.00772 51.710492 88.960938 45.632812 C 81.937545 42.593973 74.256381 41.028849 66.175781 40.958984 z "
     id="path829" />
  <rect
     style="opacity:1;vector-effect:none;fill:#a0a5af;fill-opacity:1;fill-rule:evenodd;stroke:none;stroke-width:4.40449429;stroke-linecap:round;stroke-linejoin:round;stroke-miterlimit:4;stroke-dasharray:none;paint-order:stroke fill markers"
     id="rect831"
     width="7.0470982"
     height="9.3433428"
     x="43.937458"
     y="47.641224"
     ry="2.6220911"
     transform="rotate(-3.4837738)" />
  <rect
     style="opacity:1;vector-effect:none;fill:#a0a5af;fill-opacity:1;fill-rule:evenodd;stroke:none;stroke-width:4.40449429;stroke-linecap:round;stroke-linejoin:round;stroke-miterlimit:4;stroke-dasharray:none;paint-order:stroke fill markers"
     id="rect831-9"
     width="7.6128101"
     height="9.1656008"
     x="57.694134"
     y="41.104778"
     ry="2.6220911"
     transform="rotate(3.4056342)" />
  <rect
     style="opacity:1;vector-effect:none;fill:#a0a5af;fill-opacity:1;fill-rule:evenodd;stroke:none;stroke-width:4.40449429;stroke-linecap:round;stroke-linejoin:round;stroke-miterlimit:4;stroke-dasharray:none;paint-order:stroke fill markers"
     id="rect831-9-5"
     width="7.600472"
     height="10.182477"
     x="69.383537"
     y="36.124039"
     ry="2.6220911"
     transform="rotate(7.4350991)" />
  <rect
     style="opacity:1;vector-effect:none;fill:#a0a5af;fill-opacity:1;fill-rule:evenodd;stroke:none;stroke-width:4.40449429;stroke-linecap:round;stroke-linejoin:round;stroke-miterlimit:4;stroke-dasharray:none;paint-order:stroke fill markers"
     id="rect831-9-5-7"
     width="7.9046421"
     height="11.448789"
     x="86.28643"
     y="17.43899"
     ry="2.6220911"
     transform="rotate(19.846888)" />
  <rect
     style="opacity:1;vector-effect:none;fill:#a0a5af;fill-opacity:1;fill-rule:evenodd;stroke:none;stroke-width:4.40449429;stroke-linecap:round;stroke-linejoin:round;stroke-miterlimit:4;stroke-dasharray:none;paint-order:stroke fill markers"
     id="rect831-9-5-7-2"
     width="8.3402224"
     height="12.038745"
     x="97.983391"
     y="8.7349405"
     ry="2.6220911"
     transform="rotate(25.129471)" />
  <rect
     style="opacity:1;vector-effect:none;fill:#a0a5af;fill-opacity:1;fill-rule:evenodd;stroke:none;stroke-width:4.40449429;stroke-linecap:round;stroke-linejoin:round;stroke-miterlimit:4;stroke-dasharray:none;paint-order:stroke fill markers"
     id="rect831-9-5-7-4"
     width="7.9046421"
     height="11.448789"
     x="109.1457"
     y="-2.6166987"
     ry="2.6220911"
     transform="rotate(31.127324)" />
  <rect
     style="opacity:1;vector-effect:none;fill:#a0a5af;fill-opacity:1;fill-rule:evenodd;stroke:none;stroke-width:4.40449429;stroke-linecap:round;stroke-linejoin:round;stroke-miterlimit:4;stroke-dasharray:none;paint-order:stroke fill markers"
     id="rect831-9-5-7-8"
     width="7.0997953"
     height="11.33003"
     x="119.16772"
     y="-13.871492"
     ry="2.6220911"
     transform="rotate(36.606334)" />
  <rect
     style="opacity:1;vector-effect:none;fill:#a0a5af;fill-opacity:1;fill-rule:evenodd;stroke:none;stroke-width:4.40449429;stroke-linecap:round;stroke-linejoin:round;stroke-miterlimit:4;stroke-dasharray:none;paint-order:stroke fill markers"
     id="rect831-9-1"
     width="7.6128101"
     height="9.1656008"
     x="122.38728"
     y="-42.722805"
     ry="2.6220911"
     transform="rotate(50.472906)" />
  <rect
     style="opacity:1;vector-effect:none;fill:#a0a5af;fill-opacity:1;fill-rule:evenodd;stroke:none;stroke-width:4.40449429;stroke-linecap:round;stroke-linejoin:round;stroke-miterlimit:4;stroke-dasharray:none;paint-order:stroke fill markers"
     id="rect831-9-3"
     width="6.242816"
     height="8.6419325"
     x="125.28719"
     y="-58.868027"
     ry="2.5771284"
     transform="rotate(57.771216)" />
  <path
     style="fill:#a0a5af;stroke:none;stroke-width:1px;stroke-linecap:butt;stroke-linejoin:miter;stroke-opacity:1"
     d="M 60.259766 72.917969 C 60.259766 72.917969 39.626553 92.59327 27.613281 105.70898 C 25.108003 108.44416 31.783203 109.01758 31.783203 109.01758 C 31.783203 109.01758 55.493639 99.086007 66.875 107.43555 C 75.272404 113.59601 77.666334 124.36083 76.798828 137.06055 C 75.908665 150.09196 64.546989 167.14939 61.142578 172 L 77.839844 172 C 80.114493 168.15925 88.314157 153.43218 88.591797 140.08203 C 88.966389 122.06999 83.054529 110.3579 69.607422 102.54492 C 56.577969 94.974605 35.666016 103.69531 35.666016 103.69531 L 57.240234 82.986328 L 96.357422 101.9707 L 95.927734 88.882812 L 60.259766 72.917969 z "
     id="path937" />
</svg>

<svg xmlns="http://www.w3.org/2000/svg" viewBox="0 0 192 192"><rect width="152" height="152" x="20" y="20" rx="10" style="fill:#ba6561;stroke:none;opacity:1;stroke-linecap:round;stroke-linejoin:round;isolation:isolate"/><path d="M56.09 45.305 20 59.104V162c0 5.54 4.46 10 10 10h118.256l-21.983-65.715-20.423-46.023-22.147-13.23-27.613-1.727z" style="fill:#ccc;stroke:none;stroke-width:1px;stroke-linecap:butt;stroke-linejoin:miter;stroke-opacity:1"/><path d="M66.176 40.959c-8.08-.07-16.56 1.356-25.186 4.3-6.144 2.098-15.153 5.99-20.99 8.575v8.754c4.799-2.147 16.829-7.455 23.574-9.758 15.721-5.367 30.217-5.044 42.21.145 11.991 5.188 21.663 15.266 27.56 30.32 10.65 27.19 27.462 77.938 31.011 88.705h8.428c-1.651-5.03-20.408-62.053-31.99-91.623-6.549-16.718-17.785-28.667-31.832-34.744-7.023-3.039-14.705-4.604-22.785-4.674z" style="color:#000;font-style:normal;font-variant:normal;font-weight:400;font-stretch:normal;font-size:medium;line-height:normal;font-family:sans-serif;font-variant-ligatures:normal;font-variant-position:normal;font-variant-caps:normal;font-variant-numeric:normal;font-variant-alternates:normal;font-feature-settings:normal;text-indent:0;text-align:start;text-decoration:none;text-decoration-line:none;text-decoration-style:solid;text-decoration-color:#000;letter-spacing:normal;word-spacing:normal;text-transform:none;writing-mode:lr-tb;direction:ltr;text-orientation:mixed;dominant-baseline:auto;baseline-shift:baseline;text-anchor:start;white-space:normal;shape-padding:0;clip-rule:nonzero;display:inline;overflow:visible;visibility:visible;opacity:1;isolation:auto;mix-blend-mode:normal;color-interpolation:sRGB;color-interpolation-filters:linearRGB;solid-color:#000;solid-opacity:1;vector-effect:none;fill:#a0a5af;fill-opacity:1;fill-rule:nonzero;stroke:none;stroke-width:8;stroke-linecap:round;stroke-linejoin:round;stroke-miterlimit:4;stroke-dasharray:none;stroke-dashoffset:0;stroke-opacity:1;color-rendering:auto;image-rendering:auto;shape-rendering:auto;text-rendering:auto;enable-background:accumulate"/><rect width="7.047" height="9.343" x="43.937" y="47.641" ry="2.622" style="opacity:1;vector-effect:none;fill:#a0a5af;fill-opacity:1;fill-rule:evenodd;stroke:none;stroke-width:4.40449429;stroke-linecap:round;stroke-linejoin:round;stroke-miterlimit:4;stroke-dasharray:none;paint-order:stroke fill markers" transform="rotate(-3.484)"/><rect width="7.613" height="9.166" x="57.694" y="41.105" ry="2.622" style="opacity:1;vector-effect:none;fill:#a0a5af;fill-opacity:1;fill-rule:evenodd;stroke:none;stroke-width:4.40449429;stroke-linecap:round;stroke-linejoin:round;stroke-miterlimit:4;stroke-dasharray:none;paint-order:stroke fill markers" transform="rotate(3.406)"/><rect width="7.6" height="10.182" x="69.384" y="36.124" ry="2.622" style="opacity:1;vector-effect:none;fill:#a0a5af;fill-opacity:1;fill-rule:evenodd;stroke:none;stroke-width:4.40449429;stroke-linecap:round;stroke-linejoin:round;stroke-miterlimit:4;stroke-dasharray:none;paint-order:stroke fill markers" transform="rotate(7.435)"/><rect width="7.905" height="11.449" x="86.286" y="17.439" ry="2.622" style="opacity:1;vector-effect:none;fill:#a0a5af;fill-opacity:1;fill-rule:evenodd;stroke:none;stroke-width:4.40449429;stroke-linecap:round;stroke-linejoin:round;stroke-miterlimit:4;stroke-dasharray:none;paint-order:stroke fill markers" transform="rotate(19.847)"/><rect width="8.34" height="12.039" x="97.983" y="8.735" ry="2.622" style="opacity:1;vector-effect:none;fill:#a0a5af;fill-opacity:1;fill-rule:evenodd;stroke:none;stroke-width:4.40449429;stroke-linecap:round;stroke-linejoin:round;stroke-miterlimit:4;stroke-dasharray:none;paint-order:stroke fill markers" transform="rotate(25.13)"/><rect width="7.905" height="11.449" x="109.146" y="-2.617" ry="2.622" style="opacity:1;vector-effect:none;fill:#a0a5af;fill-opacity:1;fill-rule:evenodd;stroke:none;stroke-width:4.40449429;stroke-linecap:round;stroke-linejoin:round;stroke-miterlimit:4;stroke-dasharray:none;paint-order:stroke fill markers" transform="rotate(31.127)"/><rect width="7.1" height="11.33" x="119.168" y="-13.871" ry="2.622" style="opacity:1;vector-effect:none;fill:#a0a5af;fill-opacity:1;fill-rule:evenodd;stroke:none;stroke-width:4.40449429;stroke-linecap:round;stroke-linejoin:round;stroke-miterlimit:4;stroke-dasharray:none;paint-order:stroke fill markers" transform="rotate(36.606)"/><rect width="7.613" height="9.166" x="122.387" y="-42.723" ry="2.622" style="opacity:1;vector-effect:none;fill:#a0a5af;fill-opacity:1;fill-rule:evenodd;stroke:none;stroke-width:4.40449429;stroke-linecap:round;stroke-linejoin:round;stroke-miterlimit:4;stroke-dasharray:none;paint-order:stroke fill markers" transform="rotate(50.473)"/><rect width="6.243" height="8.642" x="125.287" y="-58.868" ry="2.577" style="opacity:1;vector-effect:none;fill:#a0a5af;fill-opacity:1;fill-rule:evenodd;stroke:none;stroke-width:4.40449429;stroke-linecap:round;stroke-linejoin:round;stroke-miterlimit:4;stroke-dasharray:none;paint-order:stroke fill markers" transform="rotate(57.771)"/><path d="M60.26 72.918s-20.633 19.675-32.647 32.791c-2.505 2.735 4.17 3.309 4.17 3.309s23.71-9.932 35.092-1.582c8.397 6.16 10.791 16.925 9.924 29.625-.89 13.031-12.252 30.088-15.656 34.939H77.84c2.274-3.84 10.474-18.568 10.752-31.918.374-18.012-5.537-29.724-18.985-37.537-13.029-7.57-33.941 1.15-33.941 1.15L57.24 82.986l39.117 18.985-.43-13.088L60.26 72.918z" style="fill:#a0a5af;stroke:none;stroke-width:1px;stroke-linecap:butt;stroke-linejoin:miter;stroke-opacity:1"/></svg>
